brandFactory_export/3.Masa/Larga distancia_3Masa.svg

<?xml version="1.0" encoding="UTF-8"?>
<svg width="24px" height="24px" viewBox="0 0 24 24" version="1.1" xmlns="http://www.w3.org/2000/svg" xmlns:xlink="http://www.w3.org/1999/xlink">
    <title>3.Masa/Larga distancia_3Masa</title>
    <g id="Symbols" stroke="none" stroke-width="1" fill="none" fill-rule="evenodd">
        <g id="3.Masa/Larga-distancia_3Masa" fill="#5CB615" fill-rule="nonzero">
            <path d="M7.86218487,16.6420168 C7.29747899,16.2420168 6.55798319,16.0369748 5.6605042,16.0369748 C5.46554622,16.0369748 5.26722689,16.0470588 5.07226891,16.0705882 C5.02184874,16.0302521 4.80336134,15.8016807 4.65546218,14.8369748 C4.51092437,13.9092437 4.49411765,12.702521 4.49411765,11.8789916 L4.49411765,11.7714286 C4.49411765,10.9445378 4.51092437,9.74117647 4.65546218,8.81344538 C4.80672269,7.8487395 5.02184874,7.62016807 5.07226891,7.57983193 C5.26722689,7.60336134 5.46218487,7.61344538 5.6605042,7.61344538 C6.55462185,7.61344538 7.29747899,7.40840336 7.86218487,7.00840336 C8.42689076,6.60840336 8.81008403,6.01344538 8.98823529,5.25714286 C9.08571429,4.87058824 9.13277311,4.47058824 9.12941176,4.07058824 C9.12941176,1.86890756 7.94285714,0.678991597 5.70084034,0.628571429 C5.30420168,0.618487395 4.84369748,0.695798319 4.69243697,0.719327731 L4.67563025,0.722689076 L4.64537815,0.72605042 C3.34117647,0.961344538 2.16806723,2.15462185 1.33781513,4.08403361 C0.480672269,6.07058824 0.0268907563,8.72941176 0.0268907563,11.7680672 L0.0268907563,11.8756303 C0.0268907563,14.9142857 0.477310924,17.5697479 1.33445378,19.5630252 C2.16470588,21.492437 3.33781513,22.6857143 4.64201681,22.9243697 L4.67226891,22.9310924 L4.68907563,22.9344538 C4.83361345,22.9579832 5.25042017,23.0252101 5.6302521,23.0252101 L5.69747899,23.0252101 C7.94285714,22.9747899 9.12605042,21.7815126 9.12605042,19.5831933 C9.12941176,19.1831933 9.08235294,18.7865546 8.98487395,18.3966387 C8.81008403,17.6336134 8.4302521,17.0453782 7.86218487,16.6420168 L7.86218487,16.6420168 Z M22.6689076,7.21008403 C20.8302521,2.85042017 16.5579832,0.0201680672 11.8252101,0.0235294118 L11.7983193,0.0235294118 C11.4521008,-0.043697479 11.1159664,0.18487395 11.0521008,0.531092437 C11.0453782,0.571428571 11.0420168,0.608403361 11.0420168,0.648739496 L11.0420168,22.9680672 C11.0420168,23.3210084 11.3277311,23.6067227 11.6806723,23.6067227 C11.7647059,23.6067227 11.8453782,23.589916 11.9226891,23.5596639 C18.4268908,23.5058824 23.6537815,18.1882353 23.6,11.687395 C23.5831933,10.1512605 23.2672269,8.62857143 22.6689076,7.21008403 L22.6689076,7.21008403 Z M20.5478992,17.6302521 C19.6840336,17.1294118 18.6823529,16.7159664 17.5798319,16.3932773 C17.8588235,15.0991597 18.0168067,13.7781513 18.0537815,12.4537815 L22.2957983,12.4537815 C22.1848739,14.3058824 21.5831933,16.0907563 20.5478992,17.6302521 L20.5478992,17.6302521 Z M12.3159664,8.23529412 C13.687395,8.20840336 15.0554622,8.05378151 16.3966387,7.76470588 C16.6184874,8.8907563 16.7462185,10.0302521 16.7764706,11.1764706 L12.3159664,11.1764706 L12.3159664,8.23529412 Z M12.3159664,6.95798319 L12.3159664,1.35462185 C12.7495798,1.45210084 13.1764706,1.67394958 13.5932773,2.02352941 C14.194958,2.52773109 14.7394958,3.26386555 15.2134454,4.20840336 C15.5798319,4.94789916 15.8756303,5.72436975 16.097479,6.5210084 C14.8537815,6.78655462 13.5865546,6.93445378 12.3159664,6.95798319 Z M13.5932773,21.5596639 C13.1764706,21.9092437 12.7495798,22.1310924 12.3159664,22.2285714 L12.3159664,16.9008403 C13.5630252,16.9243697 14.8033613,17.0655462 16.0235294,17.3210084 C15.8117647,18.0302521 15.5428571,18.7159664 15.2134454,19.3781513 C14.7394958,20.3226891 14.194958,21.0554622 13.5932773,21.5596639 Z M12.3159664,15.6235294 L12.3159664,12.4571429 L16.7764706,12.4571429 C16.7428571,13.6773109 16.5983193,14.8907563 16.3428571,16.0840336 C15.0184874,15.8016807 13.6705882,15.6470588 12.3159664,15.6235294 L12.3159664,15.6235294 Z M18.0571429,11.1764706 C18.0268908,9.92268908 17.8857143,8.67563025 17.6369748,7.4487395 C18.7731092,7.11260504 19.8016807,6.6789916 20.6789916,6.1512605 C21.6436975,7.6605042 22.2016807,9.38823529 22.302521,11.1764706 L18.0571429,11.1764706 Z M19.2436975,4.37310924 C19.4823529,4.61176471 19.707563,4.85714286 19.9193277,5.11596639 C19.1831933,5.54285714 18.3058824,5.91260504 17.3344538,6.20504202 C17.092437,5.3210084 16.7630252,4.4605042 16.3563025,3.63697479 C16.010084,2.9512605 15.6302521,2.35966387 15.2168067,1.85882353 C16.7327731,2.37647059 18.1109244,3.23697479 19.2436975,4.37310924 Z M15.2134454,21.7277311 C15.6268908,21.2302521 16.010084,20.6352941 16.3529412,19.9495798 C16.7226891,19.2033613 17.0252101,18.4268908 17.2605042,17.6302521 C18.1915966,17.9058824 19.0420168,18.2521008 19.7613445,18.6521008 C19.5966387,18.8436975 19.4218487,19.0285714 19.2403361,19.210084 C18.1142857,20.3495798 16.7327731,21.210084 15.2134454,21.7277311 L15.2134454,21.7277311 Z" id="Larga-distancia_3Masa"></path>
        </g>
    </g>
</svg>

<svg width="24" height="24" viewBox="0 0 24 24" xmlns="http://www.w3.org/2000/svg"><path d="M7.862 16.642c-.565-.4-1.304-.605-2.201-.605-.195 0-.394.01-.589.034-.05-.04-.269-.27-.417-1.234-.144-.928-.16-2.134-.16-2.958v-.108c0-.826.016-2.03.16-2.958.152-.964.367-1.193.417-1.233.195.023.39.033.589.033.894 0 1.636-.205 2.201-.605.565-.4.948-.995 1.126-1.75.098-.387.145-.787.141-1.187C9.13 1.869 7.943.679 5.701.629c-.397-.01-.857.067-1.009.09l-.016.004-.03.003C3.34.961 2.167 2.155 1.337 4.084.48 6.071.027 8.729.027 11.768v.108c0 3.038.45 5.694 1.307 7.687.83 1.93 2.004 3.123 3.308 3.361l.03.007.017.003c.145.024.561.091.941.091h.067c2.246-.05 3.43-1.243 3.43-3.442.002-.4-.045-.796-.142-1.186-.175-.763-.555-1.352-1.123-1.755zM22.67 7.21A11.756 11.756 0 0011.825.024h-.027a.636.636 0 00-.756.625v22.32a.638.638 0 00.88.59c6.505-.053 11.732-5.37 11.678-11.872a11.861 11.861 0 00-.931-4.477zm-2.121 10.42c-.864-.5-1.866-.914-2.968-1.237.279-1.294.437-2.615.474-3.94h4.242a10.38 10.38 0 01-1.748 5.177zm-8.232-9.395a21.36 21.36 0 004.08-.47c.222 1.126.35 2.265.38 3.411h-4.46v-2.94zm0-1.277V1.355c.434.097.86.319 1.277.669.602.504 1.146 1.24 1.62 2.184.367.74.663 1.516.884 2.313-1.243.266-2.51.413-3.781.437zm1.277 14.602c-.417.35-.843.571-1.277.669V16.9a19.92 19.92 0 013.708.42c-.212.71-.481 1.395-.81 2.057-.475.945-1.019 1.677-1.62 2.182zm-1.277-5.936v-3.167h4.46a19.943 19.943 0 01-.433 3.627 21.063 21.063 0 00-4.027-.46zm5.741-4.448c-.03-1.253-.171-2.5-.42-3.727 1.136-.336 2.165-.77 3.042-1.298a10.41 10.41 0 011.624 5.025h-4.246zm1.187-6.803c.238.239.464.484.675.743-.736.427-1.613.797-2.585 1.089a14.38 14.38 0 00-.978-2.568 9.521 9.521 0 00-1.14-1.778 10.462 10.462 0 014.028 2.514zm-4.03 17.355a9.248 9.248 0 001.139-1.778c.37-.747.672-1.523.908-2.32.93.276 1.781.622 2.5 1.022-.164.192-.34.377-.52.558-1.127 1.14-2.508 2-4.028 2.518z" fill="#5CB615" fill-rule="nonzero"/></svg>
